picto/walk-on-the-left-stand-on-the-right.svg

<svg class="color-immutable" width="24" height="24" viewBox="0 0 24 24" fill="none" xmlns="http://www.w3.org/2000/svg"><path d="M0 22.5V1.5C0 0.675 0.675 0 1.5 0H22.5C23.325 0 24 0.675 24 1.5V22.5C24 23.325 23.325 24 22.5 24H1.5C0.675 24 0 23.325 0 22.5Z" fill="#2D327D"/><path d="M19.407 14.279C19.407 14.719 19.763 15.075 20.203 15.075C20.643 15.075 20.999 14.718 20.999 14.279V13.483H19.406V14.279H19.407Z" fill="white"/><path d="M19.156 10.974C19.106 11.197 19.052 11.391 19.18 11.632C19.289 11.836 19.522 12.277 19.522 12.277L20.966 12.855L21.294 11.494C21.319 11.392 21.32 11.287 21.297 11.185L20.89 9.307C20.842 9.084 20.644 8.925 20.416 8.925H19.99C19.762 8.925 19.565 9.084 19.516 9.307L19.156 10.974Z" fill="white"/><path d="M16.593 14.279C16.593 14.719 16.237 15.075 15.797 15.075C15.357 15.075 15.001 14.718 15.001 14.279V13.483H16.594V14.279H16.593Z" fill="white"/><path d="M16.8441 10.974C16.8941 11.197 16.9481 11.391 16.8201 11.632C16.7111 11.836 16.4781 12.277 16.4781 12.277L15.0341 12.855L14.7061 11.494C14.6811 11.392 14.6801 11.287 14.7031 11.185L15.1111 9.307C15.1591 9.084 15.3571 8.925 15.5851 8.925H16.0111C16.2391 8.925 16.4361 9.084 16.4851 9.307L16.8441 10.974Z" fill="white"/><path d="M6.65698 20.279C6.65698 20.719 7.01298 21.075 7.45298 21.075C7.89298 21.075 8.24898 20.718 8.24898 20.279V19.483H6.65698V20.279Z" fill="white"/><path d="M6.40604 16.974C6.35604 17.197 6.30204 17.391 6.43004 17.632C6.53904 17.836 6.77204 18.277 6.77204 18.277L8.21604 18.855L8.54404 17.494C8.56904 17.392 8.57004 17.287 8.54704 17.185L8.14004 15.307C8.09204 15.084 7.89404 14.925 7.66604 14.925H7.24104C7.01304 14.925 6.81604 15.084 6.76704 15.307L6.40604 16.974Z" fill="white"/><path d="M4.593 14.279C4.593 14.719 4.237 15.075 3.797 15.075C3.357 15.075 3 14.718 3 14.279V13.483H4.593V14.279Z" fill="white"/><path d="M4.84399 10.974C4.89399 11.197 4.94799 11.391 4.81999 11.632C4.71099 11.836 4.47799 12.277 4.47799 12.277L3.03399 12.855L2.70599 11.494C2.68099 11.392 2.67999 11.287 2.70299 11.185L3.10999 9.307C3.15799 9.084 3.35599 8.925 3.58399 8.925H4.00999C4.23799 8.925 4.43499 9.084 4.48399 9.307L4.84399 10.974Z" fill="white"/><path d="M6.65698 8.279C6.65698 8.719 7.01298 9.07499 7.45298 9.07499C7.89298 9.07499 8.24898 8.718 8.24898 8.279V7.48199H6.65698V8.279Z" fill="white"/><path d="M6.40602 4.974C6.35502 5.197 6.30202 5.392 6.43002 5.633C6.53902 5.837 6.77202 6.278 6.77202 6.278L8.21602 6.856L8.54402 5.495C8.56902 5.393 8.57002 5.287 8.54802 5.185L8.14002 3.307C8.09202 3.084 7.89502 2.925 7.66702 2.925H7.24102C7.01302 2.925 6.81602 3.084 6.76702 3.307L6.40602 4.974Z" fill="white"/><path d="M12 21.112C11.897 21.112 11.813 21.028 11.813 20.925V3.075C11.813 2.972 11.897 2.888 12 2.888C12.103 2.888 12.187 2.972 12.187 3.075V20.925C12.187 21.028 12.103 21.112 12 21.112Z" fill="white"/></svg>

<svg class="color-immutable" width="24" height="24" viewBox="0 0 24 24" fill="none" xmlns="http://www.w3.org/2000/svg"><g clip-path="url(#a)"><path d="M0 22.5v-21C0 .675.675 0 1.5 0h21c.825 0 1.5.675 1.5 1.5v21c0 .825-.675 1.5-1.5 1.5h-21C.675 24 0 23.325 0 22.5Z" fill="#2D327D"/><path d="M19.407 14.279a.796.796 0 1 0 1.592 0v-.796h-1.593v.796h.001ZM19.156 10.974c-.05.223-.104.417.024.658l.342.645 1.444.578.328-1.361a.672.672 0 0 0 .003-.309l-.407-1.878a.485.485 0 0 0-.474-.382h-.426a.486.486 0 0 0-.474.382l-.36 1.667ZM16.593 14.279a.796.796 0 1 1-1.592 0v-.796h1.593v.796h-.001ZM16.844 10.974c.05.223.104.417-.024.658a227.9 227.9 0 0 0-.342.645l-1.444.578-.328-1.361a.672.672 0 0 1-.003-.309l.408-1.878a.485.485 0 0 1 .474-.382h.426c.228 0 .425.159.474.382l.36 1.667ZM6.657 20.279a.796.796 0 1 0 1.592 0v-.796H6.657v.796ZM6.406 16.974c-.05.223-.104.417.024.658l.342.645 1.444.578.328-1.361a.672.672 0 0 0 .003-.309l-.407-1.878a.485.485 0 0 0-.474-.382h-.425a.486.486 0 0 0-.474.382l-.361 1.667ZM4.593 14.279a.796.796 0 1 1-1.593 0v-.796h1.593v.796ZM4.844 10.974c.05.223.104.417-.024.658l-.342.645-1.444.578-.328-1.361a.672.672 0 0 1-.003-.309l.407-1.878a.485.485 0 0 1 .474-.382h.426c.228 0 .425.159.474.382l.36 1.667ZM6.657 8.279a.796.796 0 1 0 1.592 0v-.797H6.657v.797ZM6.406 4.974c-.051.223-.104.418.024.659l.342.645 1.444.578.328-1.361a.69.69 0 0 0 .004-.31L8.14 3.307a.484.484 0 0 0-.473-.382h-.426a.486.486 0 0 0-.474.382l-.361 1.667ZM12 21.112a.187.187 0 0 1-.187-.187V3.075a.187.187 0 0 1 .374 0v17.85a.187.187 0 0 1-.187.187Z" fill="#fff"/></g><defs><clipPath id="a"><path fill="#fff" d="M0 0h24v24H0z"/></clipPath></defs></svg>
